!! 00000] TT[WS
!!!OTL: Jingebeng caomao
!!!ARE: Asia, China, Shanxi Shengchi
!! Ethnic Group: Han
!! WII, 186 (1)
!!!SCT: J0682
!!!YEM: Copyright 1995, estate of Helmut Schaffrath.
**kern
*ICvox
*Ivox
*M2/4
*k[f#]
*G:
{4dd
4dd
=1
2dd
=2
8dd
8ee
8gg
8ee
=3
8dd
8ee
8dd
8b
=4
8a
8b
8a
8b
=5
4.dd
8b
=6
8a
8b
4dd
=7
8ee
8dd
8b
8a
=8
8g
8e
4d}
=9
{4r
8g
8e
=10
2g
=11
8gg
8ee
4dd
=12
8dd
8b
8dd
8ee
=13
8dd
8b
8a
8b
=14
8a
8g
[4a
=15
8a]
8e
4d}
=16
{4dd
4dd
=17
8dd
8b
8a
8a
=18
8a
8e
4d}
==
!!!AGN: Xiaodiao. Sichun
!!!ONB: ESAC (Essen Associative Code) Database: CHINA
!!!AMT: simple duple
!!!AIN: vox
!!!EED: Helmut Schaffrath
!!!EEV: 1.0
*-
!!!ONB: Tied note syntax fixed by Craig Sapp, 2004/05/03/
